X:319
T: ENTLAUBET IST DER WALDE
N: Z0316
O: Europa, Mitteleuropa, Deutschland
R: Lyrisches Lied, Romanze
M: 4/4
L: 1/16
K: C
C4 | C4B,4C4D4 | B,2A,2G,4z4
D4 | E4D2C4B,A,B,2C2 | A,4G,4z4
C4 | C4B,4C4D4 | B,2A,2G,4z4
D4 | E4D2C4B,A,B,2C2 | A,4G,4z2
G2F2E2 | D4C2F4EDE4 | D4z8
G4 | F4E4D4C4 | D4z8
G,4 | C2D2E2F2G4D4 | F4E4
D2G4FE | FEDCD2D2C4

